img/Combined Shape.svg

<svg width="40" height="40" viewBox="0 0 40 40" fill="none" xmlns="http://www.w3.org/2000/svg">
<path fill-rule="evenodd" clip-rule="evenodd" d="M0 19.9685C0 8.95804 8.95804 0 19.9685 0C30.9789 0 39.937 8.95804 39.937 19.9685C39.937 30.9789 30.9789 39.937 19.9685 39.937C8.95804 39.937 0 30.9789 0 19.9685ZM27.7726 35.5788C22.91 33.1766 17.0271 33.1766 12.1645 35.5788C14.5169 36.7599 17.1618 37.441 19.9685 37.441C22.7751 37.441 25.4202 36.7599 27.7726 35.5788ZM30.2138 34.0914C23.9965 30.3772 15.9404 30.3772 9.72312 34.0914C5.35319 30.9125 2.49601 25.7739 2.49601 19.9685H7.48812V17.4725H2.69529C3.22696 13.7809 4.90645 10.4614 7.37326 7.89015L10.2609 10.7778L12.0257 9.01297L9.22841 6.21572C11.8864 4.13544 15.1549 2.81319 18.7204 2.55942V6.24029H21.2165V2.55935C24.7821 2.81319 28.0505 4.13536 30.7085 6.21565L27.9113 9.0129L29.6761 10.7777L32.5637 7.89007C35.0305 10.4614 36.71 13.7809 37.2417 17.4724H32.4488V19.9685H37.4409C37.4409 25.7739 34.5838 30.9125 30.2138 34.0914ZM18.7802 10.8508C18.1452 12.8288 14.9764 22.8058 14.9764 24.9606C14.9764 27.7138 17.2153 29.9527 19.9685 29.9527C22.7217 29.9527 24.9606 27.7138 24.9606 24.9606C24.9606 22.8058 21.7917 12.8288 21.1567 10.8508C20.8253 9.81725 19.1117 9.81725 18.7802 10.8508ZM19.9685 27.4567C18.5925 27.4567 17.4724 26.3366 17.4724 24.9606C17.4724 23.9404 18.7351 19.4651 19.9685 15.4175C21.2019 19.4651 22.4646 23.9404 22.4646 24.9606C22.4646 26.3366 21.3445 27.4567 19.9685 27.4567Z" fill="#2BD0D0"/>
</svg>

<svg xmlns="http://www.w3.org/2000/svg" width="40" height="40" fill="none"><path fill="#2BD0D0" fill-rule="evenodd" d="M0 19.968C0 8.958 8.958 0 19.968 0s19.969 8.958 19.969 19.968-8.958 19.969-19.968 19.969C8.957 39.937 0 30.979 0 19.969Zm27.773 15.61c-4.863-2.401-10.746-2.401-15.608 0a17.338 17.338 0 0 0 7.803 1.863c2.807 0 5.452-.681 7.805-1.862Zm2.44-1.487c-6.216-3.714-14.273-3.714-20.49 0-4.37-3.178-7.227-8.317-7.227-14.123h4.992v-2.495H2.695A17.409 17.409 0 0 1 7.373 7.89l2.888 2.888 1.765-1.765-2.798-2.797a17.362 17.362 0 0 1 9.492-3.657V6.24h2.497V2.56a17.362 17.362 0 0 1 9.492 3.656L27.91 9.013l1.765 1.765 2.888-2.888a17.41 17.41 0 0 1 4.678 9.582h-4.793v2.496h4.992c0 5.806-2.857 10.945-7.227 14.123ZM18.78 10.851c-.635 1.978-3.804 11.955-3.804 14.11a4.997 4.997 0 0 0 4.992 4.992 4.997 4.997 0 0 0 4.993-4.992c0-2.155-3.17-12.132-3.804-14.11-.332-1.034-2.045-1.034-2.377 0Zm1.188 16.606a2.5 2.5 0 0 1-2.496-2.496c0-1.02 1.263-5.496 2.496-9.543 1.234 4.047 2.497 8.522 2.497 9.543a2.5 2.5 0 0 1-2.497 2.496Z" clip-rule="evenodd"/></svg>
